X:205
T: Osborn's
S: B.Breathnach:"Ceol Rince na hEireann" IV/92 (gan ainm)
Z: B.Black
L: 1/8
M: 2/4
N: N.B. No repeats
Q: 280
R: polka
K: G
GA Gc|GA Gc|Gc Gc|cB B2|
GG/G/ Gd|GG/G/ Gd|Gd Gd|dc c2 ||
Bd cA|G2 FG|A2 GA|Be d2|
Bd cA|G2 FG|AA/A/ BA|G2 G2 ||
dd/d/ dd|ed Bg|fA ce|dG B2|
dd/d/ dd|ed Bg|fe cA|G2 G2 ||



